assets/images/logoTrasis.svg

<svg width="206" height="32" viewBox="0 0 206 32" fill="none" xmlns="http://www.w3.org/2000/svg">
<g clip-path="url(#clip0_3496_7009)">
<path d="M56.9601 7.60466V7.44094H56.7964H47.292V3.92129H70.5224V7.44094H61.0214H60.8577V7.60466V26.515H56.9601V7.60466Z" fill="#002847" stroke="white" stroke-width="0.327446"/>
<path d="M81.7754 7.31258H81.6117V7.47631V13.9382V14.102H81.7754H89.9175C91.6457 14.102 92.9871 13.9704 93.8972 13.4756C94.3584 13.2249 94.71 12.8807 94.9443 12.4169C95.1773 11.9558 95.289 11.3867 95.289 10.6926C95.289 9.99851 95.1773 9.43107 94.9441 8.97249C94.7096 8.51121 94.3576 8.17066 93.8963 7.92378C92.9863 7.43675 91.645 7.31258 89.9175 7.31258H81.7754ZM77.7072 3.92129H90.5438C93.0956 3.92129 95.2551 4.22946 96.7744 5.21078C98.2776 6.18168 99.1831 7.83194 99.1831 10.5973C99.1831 12.6708 98.4836 14.2678 97.4046 15.3695C96.3241 16.4727 94.8541 17.0887 93.2988 17.1818L93.0038 17.1995L93.1753 17.4402L99.6348 26.5114H94.8474L88.6019 17.5596L88.5531 17.4896H88.4677H81.7754H81.6117V17.6533V26.5114H77.7141L77.7072 3.92129Z" fill="#002847" stroke="white" stroke-width="0.327446"/>
<path d="M122.82 17.729H123.072L122.97 17.499L118.447 7.28533L118.298 6.94725L118.148 7.28533L113.625 17.499L113.523 17.729H113.775H122.82ZM124.639 21.3478L124.596 21.2487H124.488H112.031H111.924L111.881 21.347L109.633 26.5114H105.499L116.004 3.92129H120.611L130.963 26.5114H126.856L124.639 21.3478Z" fill="#002847" stroke="white" stroke-width="0.327446"/>
<path d="M148.352 13.4345V13.4345H148.354C150.069 13.4345 152.287 13.437 154.077 14.2394C154.967 14.6383 155.746 15.2334 156.304 16.1226C156.863 17.0126 157.208 18.2094 157.208 19.8244V20.1508C157.208 21.7583 156.863 22.9496 156.305 23.8353C155.746 24.7205 154.967 25.3128 154.077 25.71C152.287 26.5089 150.069 26.5114 148.354 26.5114H143.704C141.721 26.5059 139.985 26.3052 138.624 25.7201C137.316 25.158 136.352 24.2405 135.847 22.7829L139.476 21.5189C139.784 22.2049 140.341 22.6231 141.116 22.869C141.936 23.129 143.012 23.2008 144.323 23.2008H149.202C150.318 23.2008 151.411 23.1651 152.224 22.7615C152.637 22.5565 152.98 22.2561 153.218 21.8204C153.454 21.3872 153.58 20.831 153.58 20.1224C153.58 20.1221 153.58 20.1218 153.58 20.1215L153.584 19.7784V19.7767C153.584 19.0747 153.457 18.5209 153.221 18.0873C152.984 17.6517 152.641 17.3483 152.229 17.1392C151.416 16.7271 150.324 16.6791 149.207 16.6791L145.402 16.6204L145.402 16.6204H145.399C145.359 16.6204 145.318 16.6204 145.277 16.6204C143.578 16.6209 141.423 16.6215 139.675 15.8584C138.785 15.4701 138.006 14.8857 137.449 14.0045C136.89 13.1226 136.545 11.9308 136.545 10.3149C136.545 8.69896 136.89 7.50139 137.449 6.61094C138.007 5.72114 138.787 5.12578 139.677 4.72662C141.466 3.92382 143.684 3.92129 145.399 3.92129H148.378C150.361 3.92679 152.097 4.12841 153.458 4.71388C154.766 5.27655 155.73 6.19421 156.235 7.65043L152.616 8.92787C152.308 8.24397 151.752 7.82597 150.978 7.57976C150.16 7.3193 149.085 7.24657 147.776 7.24657H144.548C143.433 7.24657 142.339 7.27576 141.527 7.67254C141.113 7.87415 140.77 8.17131 140.532 8.60487C140.296 9.03614 140.169 9.59118 140.169 10.3002C140.169 11.0093 140.296 11.5655 140.532 11.9987C140.77 12.434 141.113 12.734 141.526 12.9385C142.338 13.3409 143.431 13.3758 144.547 13.3758L148.352 13.4345Z" fill="#002847" stroke="white" stroke-width="0.327446"/>
<path d="M165.853 26.515V3.92129H169.75V26.515H165.853Z" fill="#002847" stroke="white" stroke-width="0.327446"/>
<path d="M190.945 13.4345V13.4345H190.948C192.653 13.4345 194.865 13.437 196.652 14.2393C197.541 14.6383 198.32 15.2333 198.878 16.1226C199.436 17.0126 199.781 18.2094 199.781 19.8244V20.1508C199.781 21.7584 199.437 22.9497 198.88 23.8355C198.324 24.7207 197.547 25.313 196.659 25.7101C194.874 26.5088 192.661 26.5114 190.948 26.5114H186.312C184.327 26.5059 182.59 26.3052 181.229 25.7201C179.921 25.158 178.958 24.2405 178.455 22.7829L182.081 21.5189C182.39 22.2049 182.948 22.6231 183.724 22.869C184.544 23.129 185.62 23.2008 186.931 23.2008H191.806C192.924 23.2008 194.018 23.1651 194.831 22.7615C195.244 22.5565 195.587 22.2562 195.825 21.8205C196.062 21.3872 196.188 20.831 196.188 20.1224C196.188 20.1221 196.188 20.1218 196.188 20.1215L196.191 19.7784V19.7767C196.191 19.0747 196.065 18.5209 195.829 18.0873C195.591 17.6517 195.249 17.3483 194.836 17.1392C194.023 16.7271 192.93 16.6791 191.811 16.6791L188.006 16.6204L188.006 16.6204H188.003C187.963 16.6204 187.923 16.6204 187.882 16.6204C186.184 16.6209 184.03 16.6215 182.282 15.8584C181.393 15.4701 180.614 14.8857 180.056 14.0045C179.498 13.1226 179.153 11.9308 179.153 10.3149C179.153 8.69896 179.498 7.50139 180.056 6.61094C180.615 5.72113 181.394 5.12577 182.284 4.72661C184.073 3.92382 186.29 3.92129 188.003 3.92129H190.982C192.967 3.92679 194.704 4.12842 196.065 4.71388C197.373 5.27653 198.336 6.19413 198.839 7.65025L195.209 8.92809C194.9 8.24408 194.343 7.82602 193.569 7.57976C192.751 7.3193 191.678 7.24657 190.37 7.24657H187.142C186.025 7.24657 184.931 7.27576 184.117 7.67252C183.704 7.87412 183.361 8.17129 183.123 8.60486C182.886 9.03613 182.76 9.59118 182.76 10.3002C182.76 11.0093 182.886 11.5655 183.123 11.9987C183.36 12.4341 183.703 12.734 184.116 12.9385C184.93 13.3409 186.023 13.3758 187.14 13.3758L190.945 13.4345Z" fill="#002847" stroke="white" stroke-width="0.327446"/>
</g>
<path d="M4.09027 12.1489L2.24542 14.0254C1.67937 14.6067 1.36182 15.3918 1.36182 16.2099C1.36182 17.0281 1.67937 17.8132 2.24542 18.3944L9.71287 25.99L20.099 15.4257L16.8775 12.1489H4.09027Z" fill="#28577A"/>
<path d="M10.804 26.7261L15.0413 31.0406C15.6128 31.6163 16.3846 31.9393 17.189 31.9393C17.9933 31.9393 18.7652 31.6163 19.3366 31.0406L21.1815 29.1641V16.1619L10.804 26.7261Z" fill="#00284A"/>
<path d="M21.2951 2.77526L19.4417 0.898763C18.8702 0.323001 18.0984 0 17.294 0C16.4897 0 15.7178 0.323001 15.1463 0.898763L5.77393 10.432H21.2908L21.2951 2.77526Z" fill="#627F9D"/>
<path d="M32.4159 13.8965L23.0457 4.36548V27.8031L32.4159 18.2699C32.983 17.6892 33.3013 16.9039 33.3013 16.0854C33.3013 15.2669 32.983 14.4816 32.4159 13.9009" fill="#F8B334"/>
<defs>
<clipPath id="clip0_3496_7009">
<rect width="158.266" height="22.9212" fill="white" transform="translate(47.1283 3.75757)"/>
</clipPath>
</defs>
</svg>

<?xml version="1.0" encoding="utf-8"?>
<!-- Generator: Adobe Illustrator 27.0.0, SVG Export Plug-In . SVG Version: 6.00 Build 0)  -->
<svg version="1.1" id="Calque_1" xmlns="http://www.w3.org/2000/svg" xmlns:xlink="http://www.w3.org/1999/xlink" x="0px" y="0px"
	 viewBox="0 0 206 32" style="enable-background:new 0 0 206 32;" xml:space="preserve">
<style type="text/css">
	.st0{fill:#28577A;}
	.st1{fill:#00284A;}
	.st2{fill:#627F9D;}
	.st3{fill:#F8B334;}
</style>
<path class="st0" d="M4.1,12.1L2.2,14c-0.6,0.6-0.9,1.4-0.9,2.2c0,0.8,0.3,1.6,0.9,2.2L9.7,26l10.4-10.6l-3.2-3.3H4.1z"/>
<path class="st1" d="M10.8,26.7L15,31c0.6,0.6,1.3,0.9,2.1,0.9c0.8,0,1.6-0.3,2.1-0.9l1.8-1.9v-13L10.8,26.7z"/>
<path class="st2" d="M21.3,2.8l-1.9-1.9C18.9,0.3,18.1,0,17.3,0c-0.8,0-1.6,0.3-2.1,0.9l-9.4,9.5h15.5L21.3,2.8z"/>
<path class="st3" d="M32.4,13.9L23,4.4v23.4l9.4-9.5c0.6-0.6,0.9-1.4,0.9-2.2C33.3,15.3,33,14.5,32.4,13.9"/>
</svg>
